X:1
T:The Well-Tempered Clavier Part I-I
T:BWV 846
T:Johann Sebastian Bach
%%score { ( 1 4 ) | ( 2 3 ) }
L:1/8
Q:1/4=96
M:4/4
K:C
V:1 treble nm="Harpsichord"
V:4 treble 
V:2 bass 
V:3 bass 
V:1
"^Andante""^Praeludium" z G/c/ e/G/c/e/ z G/c/ e/G/c/e/ | z A/d/ f/A/d/f/ z A/d/ f/A/d/f/ | %2
 z G/d/ f/G/d/f/ z G/d/ f/G/d/f/ | z G/c/ e/G/c/e/ z G/c/ e/G/c/e/ | %4
 z A/e/ a/A/e/a/ z A/e/ a/A/e/a/ | z ^F/A/ d/F/A/d/ z F/A/ d/F/A/d/ | %6
 z G/d/ g/G/d/g/ z G/d/ g/G/d/g/ | z E/G/ c/E/G/c/ z E/G/ c/E/G/c/ | %8
 z E/G/ c/E/G/c/ z E/G/ c/E/G/c/ | z D/^F/ c/D/F/c/ z D/F/ c/D/F/c/ | %10
 z D/G/ B/D/G/B/ z D/G/ B/D/G/B/ | z E/G/ ^c/E/G/c/ z E/G/ c/E/G/c/ | %12
 z D/A/ d/D/A/d/ z D/A/ d/D/A/d/ | z D/F/ B/D/F/B/ z D/F/ B/D/F/B/ | %14
 z C/G/ c/C/G/c/ z C/G/ c/C/G/c/ | z A,/C/ F/A,/C/F/ z A,/C/ F/A,/C/F/ | %16
 z A,/C/ F/A,/C/F/ z A,/C/ F/A,/C/F/ | z G,/B,/ F/G,/B,/F/ z G,/B,/ F/G,/B,/F/ | %18
 z G,/C/ E/G,/C/E/ z G,/C/ E/G,/C/E/ | z _B,/C/ E/B,/C/E/ z B,/C/ E/B,/C/E/ | %20
 z A,/C/ E/A,/C/E/ z A,/C/ E/A,/C/E/ | z A,/C/ _E/A,/C/E/ z A,/C/ E/A,/C/^D/ | %22
 z B,/C/ D/B,/C/D/ z B,/C/ D/B,/C/D/ | z G,/B,/ D/G,/B,/D/ z G,/B,/ D/G,/B,/D/ | %24
 z G,/C/ E/G,/C/E/ z G,/C/ E/G,/C/E/ | z G,/C/ F/G,/C/F/ z G,/C/ F/G,/C/F/ | %26
 z G,/B,/ F/G,/B,/F/ z G,/B,/ F/G,/B,/F/ | z A,/C/ ^F/A,/C/F/ z A,/C/ F/A,/C/F/ | %28
 z G,/C/ G/G,/C/G/ z G,/C/ G/G,/C/G/ | z G,/C/ F/G,/C/F/ z G,/C/ F/G,/C/F/ | %30
 z G,/B,/ F/G,/B,/F/ z G,/B,/ F/G,/B,/F/ | z G,/_B,/ E/G,/B,/E/ z G,/B,/ E/G,/B,/E/ | %32
 z F,/A,/ C/F/C/A,/ C/[I:staff +1]A,/F,/A,/ F,/D,/F,/D,/ | %33
[I:staff -1] z G/B/ d/f/d/B/ d/B/G/B/ D/F/E/D/ | !fermata![EGc]8 | z8 |"^Fuga" z8 | z4 z GAB | %38
 c3/2d/4c/4 Be Ad- d/e/d/c/ | B/G/A/B/ c/B/c/d/ e/d/e/^f/ gB | cA d/c/B/A/ G>G F/E/F/G/ | %41
 A/G/A/B/ c4 B2 | z cde f3/2g/4f/4 ea | dg- g/a/g/f/ ea- a/b/a/g/ | f4 e>^f g2- | %45
 g2 ^f2 g/=f/e/d/ c/d/c/B/ | A/c/B/A/ G z z/ c/B/A/ ^Ge | dc/B/ A/^G/A/B/ c/^F/A/G/ BA/^B/ | %48
 cfed- dc/B/ c/4B/4A/4B/4c/4B/4A/ | A2 z2 z4 | z4 z GAB | c3/2d/4c/4 Bc de =f3/2g/4f/4 | %52
 eadg- g/a/g/f/ ea | d_b ag/f/ g/f/g/e/ f/g/a/4g/4f/4g/4 | a/^c/d/g/ f/4e/4f/4e/4f/4e/4d/ d z z2 | %55
 z4 z2 z G | AB c3/2d/4c/4 Be Ad- | d/e/d/c/ B/c/d/e/ f/g/a/g/ f/e/d/c/ | B2 cd G c2 B | %59
 c2 B_B A d2 c | de f2- f/a/g/f/ e/f/e/d/ | c4 z/ G/4A/4=B/c/ d/e/f- | %62
 f/4c/4d/4e/4f/g/ a>b [gc']4 |] %63
V:2
 z/ E3/2- E2 z/ E3/2- E2 | z/ D3/2- D2 z/ D3/2- D2 | z/ D3/2- D2 z/ D3/2- D2 | %3
 z/ E3/2- E2 z/ E3/2- E2 | z/ E3/2- E2 z/ E3/2- E2 | z/ D3/2- D2 z/ D3/2- D2 | %6
 z/ D3/2- D2 z/ D3/2- D2 | z/ C3/2- C2 z/ C3/2- C2 | z/ C3/2- C2 z/ C3/2- C2 | %9
 z/ A,3/2- A,2 z/ A,3/2- A,2 | z/ B,3/2- B,2 z/ B,3/2- B,2 | z/ _B,3/2- B,2 z/ B,3/2- B,2 | %12
 z/ A,3/2- A,2 z/ A,3/2- A,2 | z/ _A,3/2- A,2 z/ A,3/2- A,2 | z/ G,3/2- G,2 z/ G,3/2- G,2 | %15
 z/ F,3/2- F,2 z/ F,3/2- F,2 | z/ F,3/2- F,2 z/ F,3/2- F,2 | z/ D,3/2- D,2 z/ D,3/2- D,2 | %18
 z/ E,3/2- E,2 z/ E,3/2- E,2 | z/ G,3/2- G,2 z/ G,3/2- G,2 | z/ F,3/2- F,2 z/ F,3/2- F,2 | %21
 z/ C,3/2- C,2 z/ C,3/2- C,2 | z/ F,3/2- F,2 z/ F,3/2- F,2 | z/ F,3/2- F,2 z/ F,3/2- F,2 | %24
 z/ E,3/2- E,2 z/ E,3/2- E,2 | z/ D,3/2- D,2 z/ D,3/2- D,2 | z/ D,3/2- D,2 z/ D,3/2- D,2 | %27
 z/ _E,3/2- E,2 z/ E,3/2- E,2 | z/ E,3/2- E,2 z/ E,3/2- E,2 | z/ D,3/2- D,2 z/ D,3/2- D,2 | %30
 z/ D,3/2- D,2 z/ D,3/2- D,2 | z/ C,3/2- C,2 z/ C,3/2- C,2 | z/ C,3/2- C,2- C,4 | %33
 z/ B,,3/2- B,,2- B,,4 | !fermata![C,,C,]8 | z8 | z8 | z8 | z8 | z G,A,B, C3/2D/4C/4 B,E | %40
 A,D- D/E/D/C/ B,C-C_B, | A,DG,C z/ A,/B,/C/ D2 | G,2 z G, A,B, C3/2D/4C/4 | %43
 B,EA,D- D/E/D/=C/ =B,E- | E2 D2 C/B,/C/B,/ E/D/C/B,/ | C/A,/B,/C/ D/C/B,/A,/ G,2 z2 | z8 | %47
 z E,^F,^G, A,3/2B,/4A,/4 G,C | ^F,B,- B,/C/B,/A,/ ^G, A,2 G, | A,2 z G,A,B, C3/2D/4C/4 | %50
 B,EA,D- DG, D2 | CA, E2 D z z2 | z A,B,^C D3/2E/4D/4 =CF | B,E- E/F/E/D/ ^C z z2 | %54
 z A,B,^C D3/2E/4D/4 =C^F | B,E- E/^F/E/D/ C4- | C/D/C/B,/ A,/G,/A,/^F,/ G, B,CD | %57
 E3/2F/4E/4 DG CF- F/G/F/E/ | D2 F[I:staff -1]D- D[I:staff +1]G, G,2- | %59
 G,C,D,E, F,3/2G,/4F,/4 E,A, | D,G,- G,/A,/G,/F,/ E,/D,/E,/F,/ G,/A,/_B,/G,/ | %61
 A,/E,/F,/G,/ A,/B,/C/A,/ B,4 | C8 |] %63
V:3
 C4 C4 | C4 C4 | B,4 B,4 | C4 C4 | C4 C4 | C4 C4 | B,4 B,4 | B,4 B,4 | A,4 A,4 | D,4 D,4 | %10
 G,4 G,4 | G,4 G,4 | F,4 F,4 | F,4 F,4 | E,4 E,4 | E,4 E,4 | D,4 D,4 | G,,4 G,,4 | C,4 C,4 | %19
 C,4 C,4 | F,,4 F,,4 | ^F,,4 F,,4 | _A,,4 A,,4 | G,,4 G,,4 | G,,4 G,,4 | G,,4 G,,4 | G,,4 G,,4 | %27
 G,,4 G,,4 | G,,4 G,,4 | G,,4 G,,4 | G,,4 G,,4 | C,,4 C,,4 | C,,4- C,,4 | C,,4- C,,4 | x8 | x8 | %36
 x8 | x8 | x8 | x8 | z4 z C,D,E, | F,3/2G,/4F,/4 E,A, D,G,- G,/A,/G,/F,/ | %42
 E,/F,/E,/D,/ C,/D,/C,/B,,/ A,,D,A,^F, | G,/A,/_B,/G,/ ^C,D, G,2 E,2 | %44
 A,/B,/C/D/ C/B,/A,/G,/ C z z2 | z4 z G,,A,,B,, | C,3/2D,/4C,/4 B,,E, A,,D,- D,/E,/D,/C,/ | %47
 B,, E,2 D, C, =F,2 E,- | E, D,2 E, =F,E,/D,/ E,2 | A,,2 z2 z4 | z G,,A,,B,, C,3/2D,/4C,/4 B,,E, | %51
 A,,D,- D,/E,/D,/C,/ B,,_B,,A,,G,, | A,,^F,G,E, D,2 E,=F, | %53
 G,3/2A,/4G,/4 F,_B, E,A,- A,/B,/A,/G,/ | F,/E,/F,/D,/ G,A, D,4- | %55
 D,/E,/D,/C,/ B,,/A,,/G,,/^F,,/ E,,E,^F,G,- | G,A,/G,/ ^F,D, G,4- | G,4 A,2 B,C | %58
 F,/A,/G,/F,/ E,/D,/C,/B,,/ C,/D,/E,/F,/ G,G,, | C,8- | C,8- | C,8- | C,8 |] %63
V:4
 x8 | x8 | x8 | x8 | x8 | x8 | x8 | x8 | x8 | x8 | x8 | x8 | x8 | x8 | x8 | x8 | x8 | x8 | x8 | %19
 x8 | x8 | x8 | x8 | x8 | x8 | x8 | x8 | x8 | x8 | x8 | x8 | x8 | x8 | x8 | x8 | x8 | %36
 z CDE F3/2G/4F/4 EA | DG- G/A/G/F/ E/F/E/D/ C/D/C/B,/ | A,^F G2- GF/E/ FD | GFED C z z G- | %40
 GF/E/ F2- F/F/E D2 | CF z/ G/F/E/ FD G2- | G2 z2 z4 | x8 | z GAB c3/2d/4c/4 Be | %45
 Ad- d/e/d/c/ B z z D | E^F G3/2A/4G/4 FBEA- | A/B/A/^G/ ^F=F ED- D/E/^F/^G/ | %48
 A/^G/A/B/ G/^F/G/A/ B z z2 | z CDE F3/2G/4F/4 EA | DG- G/A/G/F/ E E^FG | G^F ^GA A=GAB | %52
 c3/2d/4c/4 Be Ad- d/e/d/c/ | Bg^cd ecde | A z z E^FG A3/2B/4A/4 | Gc^FB- B/c/B/A/ G/F/E/D/ | %56
 E2 D2- D/A/G/=F/ E/G/F/A/ | G2 G/A/_B c2 dG | G3 F- FE D2 | E A2 G- G FGA | %60
 B3/2c/4B/4 Ad Gc- c/d/c/B/ | A/_B/A/G/ F/G/F/E/[I:staff +1] D2- D>[I:staff -1]G | A2 z/ f/d e4 |] %63

